X:1
T:BWV 0784
T:Invention 13
T:Johann Sebastian Bach
%%score { 1 | 2 }
L:1/8
Q:1/4=132
M:4/4
K:C
V:1 treble nm="Harp"
V:2 bass 
V:1
"^Allegro" z/ E/A/c/ B/E/B/d/ ce ^Ge | A/E/A/c/ B/E/B/d/ cA z2 | z/ e/c/e/ A/c/E/G/ FA df- | %3
 f/d/B/d/ G/B/D/F/ EGce- | e/c/A/c/ Fd- d/B/G/B/ Ec- | c/A/F/A/ DB c z z2 | %6
 z/ G/c/e/ d/G/d/f/ eg Bg | c/G/c/e/ d/G/d/f/ ec ge | c'/a/e/a/ c/e/A/c/ d^fac' | %9
 b/g/d/g/ B/d/G/B/ cegb | a/^f/^d/f/ B/d/^F/A/ Gg- g/e/c/e/ | A^f- f/d/B/d/ Ge- e/c/A/c/ | %12
 ^F/g/^f/e/ ^d/f/B/d/ e z z2 | z/ g/_b/g/ e/g/^c/e/ g/e/c/e/ A/ z/ z | %14
 z/ f/a/f/ d/f/B/d/ f/d/B/d/ G/ z/ z | z/ e/g/e/ c/e/A/c/ ^d/c/A/c/ ^F/ z/ z | %16
 z/ d/=f/d/ B/d/^G/B/ d/B/G/B/ E/ z/ z | z/ E/A/c/ B/E/B/d/ cA ^GE | %18
 A/c/e/c/ A/c/^F/A/ c/A/F/A/ ^D/c/B/A/ | ^G/B/d/B/ G/B/D/=F/ G/F/D/F/ B,/F/E/D/ | %20
 C/E/A/E/ C/E/A,/C/ ^D/C/A,/C/ ^F,/C/B,/A,/ | ^G,B ^GE z/ E/A/c/ B/E/B/d/ | %22
 c/A/c/e/ d/B/d/=f/ e/c/e/=g/ f/e/d/c/ | =B/c/d/e/ f/d/^g/d/ b/d/c/a/ f/d/B/d/ | %24
 ^G/B/c/A/ E/A/B/G/ A/E/C/E/ !fermata!A,2 |] %25
V:2
 A,, A,2 ^G, A,/E,/A,/C/ B,/E,/B,/D/ | CA, ^G,E, A,/E,/A,/C/ B,/E,/B,/D/ | %2
 CA,CA, D/A,/F,/A,/ D,/F,/A,,/C,/ | B,,D, G,B,- B,/G,/E,/G,/ C,/E,/G,,/B,,/ | %4
 A,,C, D,/F,/B,,/D,/ G,,B,, C,/E,/A,,/C,/ | F,,D,, G,,/G,/F,/G,/ C,/G,/C/E/ D/G,/D/F/ | %6
 EC B,G, C/G,/C/E/ D/G,/D/F/ | EC z2 z/ G/E/G/ C/E/G,/B,/ | A,C EG ^F/A/D/F/ A,/D/^F,/A,/ | %9
 G,B, D^F E/G/C/E/ G,/C/E,/G,/ | ^F,A,B,^D z/ E/C/E/ A,/C/E/G/ | %11
 ^F/D/B,/D/ G,/B,/D/F/ E/C/A,/C/ ^F,/A,/C- | C/B,/C/A,/ B,B,, E,/E/B,/G,/ E,/B,,/G,,/B,,/ | %13
 E,,E, G,_B, ^C, z/ z G/F/E/ | DD,F,_A, B,, z z/ F/E/D/ | CC,E,^F, A,, z/ z E/^D/^C/ | %16
 B,B,,D,F, ^G,, z/ z D/C/B,/ | CA, ^G,E, A,/E,/A,/C/ B,/E,/B,/D/ | %18
 C/E/A/E/ C/E/A,/C/ ^F,/A,/C/A,/ F,/A,/^D,/F,/ | E,^G,B,G, E,B,, ^G,,E,, | A,,C,E,C, A,,C, ^D,, z | %21
 z/ B,/^G,/E,/ D,/B,/G,/D,/ C,E, ^G,,E, | A,,^F, B,,^G, C,A, D,_B, | ^G,=F, D,B,, ^G,,A,, D,,E,, | %24
 F,,^D,, E,,E, !fermata!A,,4 |] %25

